material/.icons/material/link-box-outline.svg

<svg xmlns="http://www.w3.org/2000/svg" viewBox="0 0 24 24"><path d="M19 3H5a2 2 0 00-2 2v14a2 2 0 002 2h14a2 2 0 002-2V5a2 2 0 00-2-2m0 16H5V5h14v14m-8-3h-1c-1.61 0-4-1.06-4-4 0-2.93 2.39-4 4-4h1v2h-1c-.46 0-2 .17-2 2 0 1.9 1.67 2 2 2h1v2m3 0h-1v-2h1c.46 0 2-.17 2-2 0-1.9-1.67-2-2-2h-1V8h1c1.61 0 4 1.07 4 4 0 2.94-2.39 4-4 4m1-3H9v-2h6v2z"/></svg>

<?xml version="1.0" encoding="UTF-8"?><!DOCTYPE svg PUBLIC "-//W3C//DTD SVG 1.1//EN" "http://www.w3.org/Graphics/SVG/1.1/DTD/svg11.dtd"><svg xmlns="http://www.w3.org/2000/svg" xmlns:xlink="http://www.w3.org/1999/xlink" version="1.1" id="mdi-link-box-outline" width="24" height="24" viewBox="0 0 24 24"><path d="M19,3H5A2,2 0 0,0 3,5V19A2,2 0 0,0 5,21H19A2,2 0 0,0 21,19V5A2,2 0 0,0 19,3M19,19H5V5H19V19M11,16H10C8.39,16 6,14.94 6,12C6,9.07 8.39,8 10,8H11V10H10C9.54,10 8,10.17 8,12C8,13.9 9.67,14 10,14H11V16M14,16H13V14H14C14.46,14 16,13.83 16,12C16,10.1 14.33,10 14,10H13V8H14C15.61,8 18,9.07 18,12C18,14.94 15.61,16 14,16M15,13H9V11H15V13Z" /></svg>
